src/assets/images/logo-refreshconf.svg

<svg height="42" viewBox="0 0 211 42" width="211" xmlns="http://www.w3.org/2000/svg"><g fill="#9859e1" fill-rule="evenodd"><path d="m139.173625 6.9545-3.227625 3.23c-.159125-.192375-.33725-.39425-.53675-.596125-3.5435-3.52925-8.343375-5.588375-13.40925-5.588375-10.476125 0-19 8.523875-19 19s8.523875 19 19 19c8.47875 0 15.796125-5.455375 18.2115-13.573125.37525-1.256375-.342-2.57925-1.598375-2.9545-1.254-.37525-2.57925.344375-2.952125 1.60075-1.8145 6.08475-7.30075 10.176875-13.661 10.176875-7.858875 0-14.25-6.391125-14.25-14.25s6.391125-14.25 14.25-14.25c3.8 0 7.398125 1.54375 10.0605 4.191875l.4845.643625-5.213125 5.213125c-1.009375 1.009375-.672125 1.826375.75525 1.826375h11.620875c.714875 0 1.292-.577125 1.292-1.292v-11.620875c0-1.427375-.817-1.764625-1.826375-.757625z"/><path d="m.21875 17.78125h3.515625v1.359375c.64583656-.6770867 1.2187475-1.1406237 1.71875-1.390625.51041922-.260418 1.11457984-.390625 1.8125-.390625.92708797 0 1.89582828.3020803 2.90625.90625l-1.609375 3.21875c-.66667-.4791691-1.31770516-.71875-1.953125-.71875-1.91667625 0-2.875 1.4479022-2.875 4.34375v7.890625h-3.515625zm25.609375 8.4375h-10.90625c.0937505 1.2500062.4999964 2.244788 1.21875 2.984375.7187536.7291703 1.6406194 1.09375 2.765625 1.09375.8750044 0 1.5989555-.2083313 2.171875-.625.5625028-.4166687 1.2031214-1.1874944 1.921875-2.3125l2.96875 1.65625c-.4583356.7812539-.9427058 1.450518-1.453125 2.0078125s-1.0572887 1.0156232-1.640625 1.375c-.5833362.3593768-1.2135383.622395-1.890625.7890625s-1.4114544.25-2.203125.25c-2.2708447 0-4.0937431-.7291594-5.46875-2.1875-1.3750069-1.4687573-2.0625-3.4166545-2.0625-5.84375 0-2.406262.66666-4.3541592 2-5.84375 1.3437567-1.4687573 3.1249889-2.203125 5.34375-2.203125 2.2395945 0 4.0104102.7135345 5.3125 2.140625 1.2916731 1.4166738 1.9375 3.3801958 1.9375 5.890625zm-3.609375-2.875c-.4895858-1.8750094-1.6718656-2.8125-3.546875-2.8125-.4270855 0-.8281231.0651035-1.203125.1953125s-.7161443.3177071-1.0234375.5625-.5703114.5390608-.7890625.8828125-.3854161.7343728-.5 1.171875zm11.09375-2.28125v11.9375h-3.53125v-11.9375h-1.25v-3.28125h1.25v-5.875c0-1.91667625.33333-3.27082938 1-4.0625.9166713-1.10417219 2.2499913-1.65625 4-1.65625.6250031 0 1.4114536.18228984 2.359375.546875v3.59375l-.359375-.1875c-.7604205-.38541859-1.3854142-.578125-1.875-.578125-.6250031 0-1.0468739.22395609-1.265625.671875-.2187511.4375022-.328125 1.2812438-.328125 2.53125v5.015625h3.828125v3.28125zm5.859375-3.28125h3.515625v1.359375c.6458366-.6770867 1.2187475-1.1406237 1.71875-1.390625.5104192-.260418 1.1145798-.390625 1.8125-.390625.927088 0 1.8958283.3020803 2.90625.90625l-1.609375 3.21875c-.66667-.4791691-1.3177052-.71875-1.953125-.71875-1.9166763 0-2.875 1.4479022-2.875 4.34375v7.890625h-3.515625zm25.609375 8.4375h-10.90625c.0937505 1.2500062.4999964 2.244788 1.21875 2.984375.7187536.7291703 1.6406194 1.09375 2.765625 1.09375.8750044 0 1.5989555-.2083313 2.171875-.625.5625028-.4166687 1.2031214-1.1874944 1.921875-2.3125l2.96875 1.65625c-.4583356.7812539-.9427058 1.450518-1.453125 2.0078125s-1.0572887 1.0156232-1.640625 1.375-1.2135383.622395-1.890625.7890625-1.4114544.25-2.203125.25c-2.2708447 0-4.0937431-.7291594-5.46875-2.1875-1.3750069-1.4687573-2.0625-3.4166545-2.0625-5.84375 0-2.406262.66666-4.3541592 2-5.84375 1.3437567-1.4687573 3.1249889-2.203125 5.34375-2.203125 2.2395945 0 4.0104102.7135345 5.3125 2.140625 1.2916731 1.4166738 1.9375 3.3801958 1.9375 5.890625zm-3.609375-2.875c-.4895858-1.8750094-1.6718656-2.8125-3.546875-2.8125-.4270855 0-.8281231.0651035-1.203125.1953125s-.7161443.3177071-1.0234375.5625-.5703114.5390608-.7890625.8828125-.3854161.7343728-.5 1.171875zm16.296875-2.96875-2.90625 1.546875c-.4583356-.9375047-1.0260383-1.40625-1.703125-1.40625-.3229183 0-.5989572.1067698-.828125.3203125s-.34375.4869775-.34375.8203125c0 .5833363.6770766 1.1614555 2.03125 1.734375 1.8645927.8020873 3.1197884 1.5416633 3.765625 2.21875s.96875 1.5885359.96875 2.734375c0 1.4687573-.5416613 2.6979117-1.625 3.6875-1.0520886.9375047-2.3229092 1.40625-3.8125 1.40625-2.5520961 0-4.3593697-1.2447792-5.421875-3.734375l3-1.390625c.4166687.7291703.7343739 1.1927073.953125 1.390625.4270855.3958353.937497.59375 1.53125.59375 1.1875059 0 1.78125-.5416613 1.78125-1.625 0-.6250031-.4583287-1.2083306-1.375-1.75-.3541684-.1770842-.7083316-.3489575-1.0625-.515625s-.7135398-.3385408-1.078125-.515625c-1.0208384-.5000025-1.7395813-.9999975-2.15625-1.5-.5312527-.6354198-.796875-1.45312-.796875-2.453125 0-1.3229233.4531205-2.4166623 1.359375-3.28125.927088-.8645877 2.0520767-1.296875 3.375-1.296875 1.9479264 0 3.3958286 1.0051983 4.34375 3.015625zm4.140625-13.765625h3.515625v12.4375c1.2500063-1.1250056 2.6302008-1.6875 4.140625-1.6875 1.7187586 0 3.0937448.5572861 4.125 1.671875.8750044.9687548 1.3125 2.5156144 1.3125 4.640625v9.328125h-3.515625v-9c0-1.2187561-.2161437-2.1015598-.6484375-2.6484375s-1.1275994-.8203125-2.0859375-.8203125c-1.2291728 0-2.0937475.3802045-2.59375 1.140625-.4895858.7708372-.734375 2.0937406-.734375 3.96875v7.359375h-3.515625z"/><path d="m163.0625 18.4375v4.671875c-.802087-.9791716-1.52083-1.6510398-2.15625-2.015625-.625003-.3750019-1.359371-.5625-2.203125-.5625-1.322923 0-2.421871.463537-3.296875 1.390625s-1.3125 2.0885347-1.3125 3.484375c0 1.4270905.421871 2.5989537 1.265625 3.515625.854171.9166713 1.942702 1.375 3.265625 1.375.843754 0 1.588538-.1822898 2.234375-.546875.625003-.3541684 1.359371-1.0416616 2.203125-2.0625v4.640625c-1.42709.739587-2.85416 1.109375-4.28125 1.109375-2.354178 0-4.322909-.7604091-5.90625-2.28125-1.583341-1.5312577-2.375-3.4322803-2.375-5.703125s.802075-4.1874922 2.40625-5.75 3.572905-2.34375 5.90625-2.34375c1.500008 0 2.91666.3593714 4.25 1.078125zm2.6875 6.84375c0-2.1979277.78645-4.0677006 2.359375-5.609375s3.489572-2.3125 5.75-2.3125c2.270845 0 4.197909.7760339 5.78125 2.328125 1.562508 1.5520911 2.34375 3.458322 2.34375 5.71875 0 2.2812614-.78645 4.1927006-2.359375 5.734375-1.583341 1.5312577-3.52603 2.296875-5.828125 2.296875-2.281261 0-4.192701-.7812422-5.734375-2.34375-1.541674-1.5416744-2.3125-3.479155-2.3125-5.8125zm3.59375.0625c0 1.5208409.406246 2.7239539 1.21875 3.609375.833337.8958378 1.932285 1.34375 3.296875 1.34375 1.375007 0 2.473954-.4427039 3.296875-1.328125s1.234375-2.0677009 1.234375-3.546875-.411454-2.6614539-1.234375-3.546875c-.833337-.8958378-1.932285-1.34375-3.296875-1.34375-1.343757 0-2.432288.4479122-3.265625 1.34375s-1.25 2.0520762-1.25 3.46875zm16.359375-7.5625h3.53125v1.40625c1.229173-1.2187561 2.614576-1.828125 4.15625-1.828125 1.770842 0 3.151037.5572861 4.140625 1.671875.854171.9479214 1.28125 2.4947809 1.28125 4.640625v9.328125h-3.53125v-8.5c0-1.5000075-.208331-2.5364555-.625-3.109375-.406252-.5833363-1.145828-.875-2.21875-.875-1.166673 0-1.994789.3854128-2.484375 1.15625-.479169.7604205-.71875 2.0885322-.71875 3.984375v7.34375h-3.53125zm21.1875 3.28125v11.9375h-3.53125v-11.9375h-1.25v-3.28125h1.25v-5.875c0-1.91667625.33333-3.27082938 1-4.0625.916671-1.10417219 2.249991-1.65625 4-1.65625.625003 0 1.411454.18228984 2.359375.546875v3.59375l-.359375-.1875c-.76042-.38541859-1.385414-.578125-1.875-.578125-.625003 0-1.046874.22395609-1.265625.671875-.218751.4375022-.328125 1.2812438-.328125 2.53125v5.015625h3.828125v3.28125z"/></g></svg>

<?xml version="1.0" encoding="UTF-8"?>
<svg width="211px" height="42px" viewBox="0 0 211 42" version="1.1" xmlns="http://www.w3.org/2000/svg" xmlns:xlink="http://www.w3.org/1999/xlink">
    <!-- Generator: Sketch 49 (51002) - http://www.bohemiancoding.com/sketch -->
    <title>Artboard Copy 4</title>
    <desc>Created with Sketch.</desc>
    <defs></defs>
    <g id="Artboard-Copy-4" stroke="none" stroke-width="1" fill="none" fill-rule="evenodd">
        <g id="Group" fill="#9859e1">
            <path d="M139.173625,6.9545 L135.946,10.1845 C135.786875,9.992125 135.60875,9.79025 135.40925,9.588375 C131.86575,6.059125 127.065875,4 122,4 C111.523875,4 103,12.523875 103,23 C103,33.476125 111.523875,42 122,42 C130.47875,42 137.796125,36.544625 140.2115,28.426875 C140.58675,27.1705 139.8695,25.847625 138.613125,25.472375 C137.359125,25.097125 136.033875,25.81675 135.661,27.073125 C133.8465,33.157875 128.36025,37.25 122,37.25 C114.141125,37.25 107.75,30.858875 107.75,23 C107.75,15.141125 114.141125,8.75 122,8.75 C125.8,8.75 129.398125,10.29375 132.0605,12.941875 L132.545,13.5855 L127.331875,18.798625 C126.3225,19.808 126.65975,20.625 128.087125,20.625 L139.708,20.625 C140.422875,20.625 141,20.047875 141,19.333 L141,7.712125 C141,6.28475 140.183,5.9475 139.173625,6.9545 L139.173625,6.9545 Z" id="Refresh_1-Copy"></path>
            <path d="M0.21875,17.78125 L3.734375,17.78125 L3.734375,19.140625 C4.38021156,18.4635383 4.9531225,18.0000013 5.453125,17.75 C5.96354422,17.489582 6.56770484,17.359375 7.265625,17.359375 C8.19271297,17.359375 9.16145328,17.6614553 10.171875,18.265625 L8.5625,21.484375 C7.89583,21.0052059 7.24479484,20.765625 6.609375,20.765625 C4.69269875,20.765625 3.734375,22.2135272 3.734375,25.109375 L3.734375,33 L0.21875,33 L0.21875,17.78125 Z M25.828125,26.21875 L14.921875,26.21875 C15.0156255,27.4687562 15.4218714,28.463538 16.140625,29.203125 C16.8593786,29.9322953 17.7812444,30.296875 18.90625,30.296875 C19.7812544,30.296875 20.5052055,30.0885437 21.078125,29.671875 C21.6406278,29.2552063 22.2812464,28.4843806 23,27.359375 L25.96875,29.015625 C25.5104144,29.7968789 25.0260442,30.466143 24.515625,31.0234375 C24.0052058,31.580732 23.4583363,32.0390607 22.875,32.3984375 C22.2916638,32.7578143 21.6614617,33.0208325 20.984375,33.1875 C20.3072883,33.3541675 19.5729206,33.4375 18.78125,33.4375 C16.5104053,33.4375 14.6875069,32.7083406 13.3125,31.25 C11.9374931,29.7812427 11.25,27.8333455 11.25,25.40625 C11.25,22.999988 11.91666,21.0520908 13.25,19.5625 C14.5937567,18.0937427 16.3749889,17.359375 18.59375,17.359375 C20.8333445,17.359375 22.6041602,18.0729095 23.90625,19.5 C25.1979231,20.9166738 25.84375,22.8801958 25.84375,25.390625 L25.828125,26.21875 Z M22.21875,23.34375 C21.7291642,21.4687406 20.5468844,20.53125 18.671875,20.53125 C18.2447895,20.53125 17.8437519,20.5963535 17.46875,20.7265625 C17.0937481,20.8567715 16.7526057,21.0442696 16.4453125,21.2890625 C16.1380193,21.5338554 15.8750011,21.8281233 15.65625,22.171875 C15.4374989,22.5156267 15.2708339,22.9062478 15.15625,23.34375 L22.21875,23.34375 Z M33.3125,21.0625 L33.3125,33 L29.78125,33 L29.78125,21.0625 L28.53125,21.0625 L28.53125,17.78125 L29.78125,17.78125 L29.78125,11.90625 C29.78125,9.98957375 30.11458,8.63542062 30.78125,7.84375 C31.6979213,6.73957781 33.0312413,6.1875 34.78125,6.1875 C35.4062531,6.1875 36.1927036,6.36978984 37.140625,6.734375 L37.140625,10.328125 L36.78125,10.140625 C36.0208295,9.75520641 35.3958358,9.5625 34.90625,9.5625 C34.2812469,9.5625 33.8593761,9.78645609 33.640625,10.234375 C33.4218739,10.6718772 33.3125,11.5156188 33.3125,12.765625 L33.3125,17.78125 L37.140625,17.78125 L37.140625,21.0625 L33.3125,21.0625 Z M39.171875,17.78125 L42.6875,17.78125 L42.6875,19.140625 C43.3333366,18.4635383 43.9062475,18.0000013 44.40625,17.75 C44.9166692,17.489582 45.5208298,17.359375 46.21875,17.359375 C47.145838,17.359375 48.1145783,17.6614553 49.125,18.265625 L47.515625,21.484375 C46.848955,21.0052059 46.1979198,20.765625 45.5625,20.765625 C43.6458237,20.765625 42.6875,22.2135272 42.6875,25.109375 L42.6875,33 L39.171875,33 L39.171875,17.78125 Z M64.78125,26.21875 L53.875,26.21875 C53.9687505,27.4687562 54.3749964,28.463538 55.09375,29.203125 C55.8125036,29.9322953 56.7343694,30.296875 57.859375,30.296875 C58.7343794,30.296875 59.4583305,30.0885437 60.03125,29.671875 C60.5937528,29.2552063 61.2343714,28.4843806 61.953125,27.359375 L64.921875,29.015625 C64.4635394,29.7968789 63.9791692,30.466143 63.46875,31.0234375 C62.9583308,31.580732 62.4114613,32.0390607 61.828125,32.3984375 C61.2447887,32.7578143 60.6145867,33.0208325 59.9375,33.1875 C59.2604133,33.3541675 58.5260456,33.4375 57.734375,33.4375 C55.4635303,33.4375 53.6406319,32.7083406 52.265625,31.25 C50.8906181,29.7812427 50.203125,27.8333455 50.203125,25.40625 C50.203125,22.999988 50.869785,21.0520908 52.203125,19.5625 C53.5468817,18.0937427 55.3281139,17.359375 57.546875,17.359375 C59.7864695,17.359375 61.5572852,18.0729095 62.859375,19.5 C64.1510481,20.9166738 64.796875,22.8801958 64.796875,25.390625 L64.78125,26.21875 Z M61.171875,23.34375 C60.6822892,21.4687406 59.5000094,20.53125 57.625,20.53125 C57.1979145,20.53125 56.7968769,20.5963535 56.421875,20.7265625 C56.0468731,20.8567715 55.7057307,21.0442696 55.3984375,21.2890625 C55.0911443,21.5338554 54.8281261,21.8281233 54.609375,22.171875 C54.3906239,22.5156267 54.2239589,22.9062478 54.109375,23.34375 L61.171875,23.34375 Z M77.46875,20.375 L74.5625,21.921875 C74.1041644,20.9843703 73.5364617,20.515625 72.859375,20.515625 C72.5364567,20.515625 72.2604178,20.6223948 72.03125,20.8359375 C71.8020822,21.0494802 71.6875,21.322915 71.6875,21.65625 C71.6875,22.2395863 72.3645766,22.8177055 73.71875,23.390625 C75.5833427,24.1927123 76.8385384,24.9322883 77.484375,25.609375 C78.1302116,26.2864617 78.453125,27.1979109 78.453125,28.34375 C78.453125,29.8125073 77.9114637,31.0416617 76.828125,32.03125 C75.7760364,32.9687547 74.5052158,33.4375 73.015625,33.4375 C70.4635289,33.4375 68.6562553,32.1927208 67.59375,29.703125 L70.59375,28.3125 C71.0104187,29.0416703 71.3281239,29.5052073 71.546875,29.703125 C71.9739605,30.0989603 72.484372,30.296875 73.078125,30.296875 C74.2656309,30.296875 74.859375,29.7552137 74.859375,28.671875 C74.859375,28.0468719 74.4010463,27.4635444 73.484375,26.921875 C73.1302066,26.7447908 72.7760434,26.5729175 72.421875,26.40625 C72.0677066,26.2395825 71.7083352,26.0677092 71.34375,25.890625 C70.3229116,25.3906225 69.6041687,24.8906275 69.1875,24.390625 C68.6562473,23.7552052 68.390625,22.937505 68.390625,21.9375 C68.390625,20.6145767 68.8437455,19.5208377 69.75,18.65625 C70.677088,17.7916623 71.8020767,17.359375 73.125,17.359375 C75.0729264,17.359375 76.5208286,18.3645733 77.46875,20.375 Z M81.609375,6.609375 L85.125,6.609375 L85.125,19.046875 C86.3750063,17.9218694 87.7552008,17.359375 89.265625,17.359375 C90.9843836,17.359375 92.3593698,17.9166611 93.390625,19.03125 C94.2656294,20.0000048 94.703125,21.5468644 94.703125,23.671875 L94.703125,33 L91.1875,33 L91.1875,24 C91.1875,22.7812439 90.9713563,21.8984402 90.5390625,21.3515625 C90.1067687,20.8046848 89.4114631,20.53125 88.453125,20.53125 C87.2239522,20.53125 86.3593775,20.9114545 85.859375,21.671875 C85.3697892,22.4427122 85.125,23.7656156 85.125,25.640625 L85.125,33 L81.609375,33 L81.609375,6.609375 Z" id="refresh"></path>
            <path d="M163.0625,18.4375 L163.0625,23.109375 C162.260413,22.1302034 161.54167,21.4583352 160.90625,21.09375 C160.281247,20.7187481 159.546879,20.53125 158.703125,20.53125 C157.380202,20.53125 156.281254,20.994787 155.40625,21.921875 C154.531246,22.848963 154.09375,24.0104097 154.09375,25.40625 C154.09375,26.8333405 154.515621,28.0052037 155.359375,28.921875 C156.213546,29.8385463 157.302077,30.296875 158.625,30.296875 C159.468754,30.296875 160.213538,30.1145852 160.859375,29.75 C161.484378,29.3958316 162.218746,28.7083384 163.0625,27.6875 L163.0625,32.328125 C161.63541,33.067712 160.20834,33.4375 158.78125,33.4375 C156.427072,33.4375 154.458341,32.6770909 152.875,31.15625 C151.291659,29.6249923 150.5,27.7239697 150.5,25.453125 C150.5,23.1822803 151.302075,21.2656328 152.90625,19.703125 C154.510425,18.1406172 156.479155,17.359375 158.8125,17.359375 C160.312508,17.359375 161.72916,17.7187464 163.0625,18.4375 Z M165.75,25.28125 C165.75,23.0833223 166.53645,21.2135494 168.109375,19.671875 C169.6823,18.1302006 171.598947,17.359375 173.859375,17.359375 C176.13022,17.359375 178.057284,18.1354089 179.640625,19.6875 C181.203133,21.2395911 181.984375,23.145822 181.984375,25.40625 C181.984375,27.6875114 181.197925,29.5989506 179.625,31.140625 C178.041659,32.6718827 176.09897,33.4375 173.796875,33.4375 C171.515614,33.4375 169.604174,32.6562578 168.0625,31.09375 C166.520826,29.5520756 165.75,27.614595 165.75,25.28125 Z M169.34375,25.34375 C169.34375,26.8645909 169.749996,28.0677039 170.5625,28.953125 C171.395837,29.8489628 172.494785,30.296875 173.859375,30.296875 C175.234382,30.296875 176.333329,29.8541711 177.15625,28.96875 C177.979171,28.0833289 178.390625,26.9010491 178.390625,25.421875 C178.390625,23.9427009 177.979171,22.7604211 177.15625,21.875 C176.322913,20.9791622 175.223965,20.53125 173.859375,20.53125 C172.515618,20.53125 171.427087,20.9791622 170.59375,21.875 C169.760413,22.7708378 169.34375,23.9270762 169.34375,25.34375 Z M185.703125,17.78125 L189.234375,17.78125 L189.234375,19.1875 C190.463548,17.9687439 191.848951,17.359375 193.390625,17.359375 C195.161467,17.359375 196.541662,17.9166611 197.53125,19.03125 C198.385421,19.9791714 198.8125,21.5260309 198.8125,23.671875 L198.8125,33 L195.28125,33 L195.28125,24.5 C195.28125,22.9999925 195.072919,21.9635445 194.65625,21.390625 C194.249998,20.8072887 193.510422,20.515625 192.4375,20.515625 C191.270827,20.515625 190.442711,20.9010378 189.953125,21.671875 C189.473956,22.4322955 189.234375,23.7604072 189.234375,25.65625 L189.234375,33 L185.703125,33 L185.703125,17.78125 Z M206.890625,21.0625 L206.890625,33 L203.359375,33 L203.359375,21.0625 L202.109375,21.0625 L202.109375,17.78125 L203.359375,17.78125 L203.359375,11.90625 C203.359375,9.98957375 203.692705,8.63542062 204.359375,7.84375 C205.276046,6.73957781 206.609366,6.1875 208.359375,6.1875 C208.984378,6.1875 209.770829,6.36978984 210.71875,6.734375 L210.71875,10.328125 L210.359375,10.140625 C209.598955,9.75520641 208.973961,9.5625 208.484375,9.5625 C207.859372,9.5625 207.437501,9.78645609 207.21875,10.234375 C206.999999,10.6718772 206.890625,11.5156188 206.890625,12.765625 L206.890625,17.78125 L210.71875,17.78125 L210.71875,21.0625 L206.890625,21.0625 Z" id="conf"></path>
        </g>
    </g>
</svg>
